app/dist/common/images/transfar-zhilian-c.svg

<svg height="18" viewBox="0 0 18 18" width="18" xmlns="http://www.w3.org/2000/svg"><path d="m0 0h18v18h-18z" fill="#f0f3fa"/><path d="m8.12 4-1.06 1.06 2.22 1.38v.7l1.39.59v-3.73l-1.4.64-1.16-.64zm.73 2.81-1.17 1-.68-.36-2.2 1.34-.31-1.48 1.19-.5v-1.87l3.17 1.86zm1.82 3.02 3.33-1.83-.93-.76h-.46v-1.51l-1.39-.54v2.93h-.55v1.7zm-3.34-1.68-3.33 1.83.93.78h.46v1.49l1.39.54v-2.9h.55v-1.75zm3.01 2-1.16.99 3.15 1.86v-1.87l1.22-.5-.31-1.48-2.2 1.33-.7-.34zm.6 2.79-1.06 1.06-1.14-.64-1.4.64v-3.73l1.38.6v.69z" fill="#de001f"/></svg>

<!-- by TradingView --><svg width="18" height="18" viewBox="0 0 18 18" xmlns="http://www.w3.org/2000/svg"><path fill="#F0F3FA" d="M0 0h18v18H0z"/><path d="M8.12 4 7.06 5.06l2.22 1.38v.7l1.39.59V4l-1.4.64L8.11 4Zm.73 2.81-1.17 1L7 7.45 4.8 8.79l-.31-1.48 1.19-.5V4.94L8.85 6.8Zm1.82 3.02L14 8l-.93-.76h-.46V5.73l-1.39-.54v2.93h-.55v1.7ZM7.33 8.15 4 9.98l.93.78h.46v1.49l1.39.54v-2.9h.55V8.14Zm3.01 2-1.16.99L12.33 13v-1.87l1.22-.5-.31-1.48-2.2 1.33-.7-.34Zm.6 2.79L9.88 14l-1.14-.64-1.4.64v-3.73l1.38.6v.69l2.22 1.38Z" fill="#DE001F"/></svg>
